X: 2790
T: Banshee, The
R: reel
M: 4/4
K: Gmajor
G2 GD EDED|GFGB d2 Bd|eged BAGA|BAGE E2 (3DEF|
G2 GD EDED|GFGB d2 Bd|eged BAGA|BAGE E2 D2:|
|:eaag egge|dBBA B2 Bd|e2 eB gBfB|eBBA B3 z|
eaag efge dBBA B2 Bd|eged BAGA|BAGE E2 D2:|

